images/icon/fb_f.svg

<svg height="32" viewBox="0 0 32 32" width="32" xmlns="http://www.w3.org/2000/svg"><g fill="none" fill-rule="evenodd"><path d="m0 0h31.267176v31.288889h-31.267176z"/><ellipse cx="15.633588" cy="15.644444" fill="#979797" rx="15.633588" ry="15.644444"/><path d="m16.5678408 24.8888889h-3.4660118v-8.1788101h-1.731947v-2.8181435h1.731947v-1.6919185c0-2.29890316.9774301-3.66668347 3.7561699-3.66668347h2.3127925v2.81917587h-1.4454954c-1.0817388 0-1.1532193.3938175-1.1532193 1.1288058l-.0047654 1.4106203h2.6193646l-.3065721 2.8181435h-2.3127925v8.1788101z" fill="#000"/></g></svg>

<?xml version="1.0" encoding="UTF-8"?>
<svg width="32px" height="32px" viewBox="0 0 32 32" version="1.1" xmlns="http://www.w3.org/2000/svg" xmlns:xlink="http://www.w3.org/1999/xlink">
    <!-- Generator: Sketch 64 (93537) - https://sketch.com -->
    <title>facebook</title>
    <desc>Created with Sketch.</desc>
    <g id="Live-Game" stroke="none" stroke-width="1" fill="none" fill-rule="evenodd">
        <g id="footer" transform="translate(-1255.000000, -223.000000)">
            <g id="share_01" transform="translate(1255.000000, 223.000000)">
                <g id="facebook">
                    <rect id="Rectangle" x="0" y="0" width="31.2671756" height="31.2888889"></rect>
                    <ellipse id="Oval" fill="#979797" cx="15.6335878" cy="15.6444444" rx="15.6335878" ry="15.6444444"></ellipse>
                    <path d="M16.5678408,24.8888889 L13.101829,24.8888889 L13.101829,16.7100788 L11.369882,16.7100788 L11.369882,13.8919353 L13.101829,13.8919353 L13.101829,12.2000168 C13.101829,9.90111364 14.0792591,8.53333333 16.8579989,8.53333333 L19.1707914,8.53333333 L19.1707914,11.3525092 L17.725296,11.3525092 C16.6435572,11.3525092 16.5720767,11.7463267 16.5720767,12.481315 L16.5673113,13.8919353 L19.1866759,13.8919353 L18.8801038,16.7100788 L16.5673113,16.7100788 L16.5673113,24.8888889 L16.5678408,24.8888889 Z" id="Shape" fill="#000000"></path>
                </g>
            </g>
        </g>
    </g>
</svg>
